src/images/sitebreaker-logo.svg

<svg width="425" height="54" viewBox="0 0 425 54" xmlns="http://www.w3.org/2000/svg"><title>SITEBREAKER</title><defs><filter x="-50%" y="-50%" width="200%" height="200%" filterUnits="objectBoundingBox" id="a"><feOffset dx="3" dy="3" in="SourceAlpha" result="shadowOffsetOuter1"/><feGaussianBlur in="shadowOffsetOuter1" result="shadowBlurOuter1"/><feColorMatrix values="0 0 0 0 0 0 0 0 0 0 0 0 0 0 0 0 0 0 0.7 0" in="shadowBlurOuter1" result="shadowMatrixOuter1"/><feMerge><feMergeNode in="shadowMatrixOuter1"/><feMergeNode in="SourceGraphic"/></feMerge></filter></defs><path d="M4.688 26.016l13.68 9.072V38.4H.44V51h27.432c3.672 0 6.264-2.592 6.264-6.264V33.288c0-4.032-.792-6.264-4.248-8.568l-13.68-9.144v-2.304h15.48l2.448-6.48V.6H6.776C3.032.6.44 3.192.44 6.864v10.584c0 4.032.792 6.192 4.248 8.568zM54.152 51V.6H38.456V51h15.696zm13.032-37.728V51h15.768V13.272h7.56l2.52-6.408V.6h-35.28v12.672h9.432zM130.328 51V38.4h-18v-6.912h15.48v-12.6h-15.48v-5.616h15.48l2.52-6.408V.6H96.632V51h33.696zm20.088-19.512h6.264V38.4h-6.264v-6.912zm6.264-12.6h-6.264v-5.616h6.264v5.616zM166.112 51c3.744 0 6.336-2.592 6.336-6.264V31.992c0-3.744-3.024-6.12-6.48-6.12v-1.368c3.456 0 6.48-2.376 6.48-6.048V6.864c0-3.672-2.592-6.264-6.336-6.264h-31.464V51h31.464zm33.408-37.728v9.432h-6.264v-9.432h6.264zM177.488.6V51h15.768V35.304h3.168L200.672 51h15.408v-6.264l-4.968-12.384c2.376-.648 4.176-3.312 4.176-5.688v-19.8c0-3.672-2.592-6.264-6.264-6.264h-31.536zM254.096 51V38.4h-18v-6.912h15.48v-12.6h-15.48v-5.616h15.48l2.52-6.408V.6H220.4V51h33.696zm20.736-22.752l1.44-14.976H278l1.44 14.976h-4.608zM264.032.6l-7.056 44.136V51h15.696l1.008-10.152h6.912L281.528 51h15.768v-6.264L290.24.6h-26.208zm56.16 18.288h-2.88V.6h-15.696V51h15.696V31.488h2.88L324.44 51h15.696v-6.264L333.08 24.36l5.832-17.496V.6h-14.976l-3.744 18.288zM378.152 51V38.4h-18v-6.912h15.48v-12.6h-15.48v-5.616h15.48l2.52-6.408V.6h-33.696V51h33.696zm26.352-37.728v9.432h-6.264v-9.432h6.264zM382.472.6V51h15.768V35.304h3.168L405.656 51h15.408v-6.264l-4.968-12.384c2.376-.648 4.176-3.312 4.176-5.688v-19.8c0-3.672-2.592-6.264-6.264-6.264h-31.536z" fill="#EC802F" filter="url(#a)" fill-rule="evenodd"/></svg>

<?xml version="1.0" encoding="UTF-8" standalone="no"?>
<svg width="425px" height="54px" viewBox="0 0 425 54" version="1.1" xmlns="http://www.w3.org/2000/svg" xmlns:xlink="http://www.w3.org/1999/xlink" xmlns:sketch="http://www.bohemiancoding.com/sketch/ns">
    <!-- Generator: Sketch 3.5.1 (25234) - http://www.bohemiancoding.com/sketch -->
    <title>SITEBREAKER</title>
    <desc>Created with Sketch.</desc>
    <defs>
        <filter x="-50%" y="-50%" width="200%" height="200%" filterUnits="objectBoundingBox" id="filter-1">
            <feOffset dx="3" dy="3" in="SourceAlpha" result="shadowOffsetOuter1"></feOffset>
            <feGaussianBlur stdDeviation="0" in="shadowOffsetOuter1" result="shadowBlurOuter1"></feGaussianBlur>
            <feColorMatrix values="0 0 0 0 0   0 0 0 0 0   0 0 0 0 0  0 0 0 0.7 0" in="shadowBlurOuter1" type="matrix" result="shadowMatrixOuter1"></feColorMatrix>
            <feMerge>
                <feMergeNode in="shadowMatrixOuter1"></feMergeNode>
                <feMergeNode in="SourceGraphic"></feMergeNode>
            </feMerge>
        </filter>
    </defs>
    <g id="Page-1" stroke="none" stroke-width="1" fill="none" fill-rule="evenodd" sketch:type="MSPage">
        <path d="M4.688,26.016 L18.368,35.088 L18.368,38.4 L0.44,38.4 L0.44,51 L27.872,51 C31.544,51 34.136,48.408 34.136,44.736 L34.136,33.288 C34.136,29.256 33.344,27.024 29.888,24.72 L16.208,15.576 L16.208,13.272 L31.688,13.272 L34.136,6.792 L34.136,0.6 L6.776,0.6 C3.032,0.6 0.44,3.192 0.44,6.864 L0.44,17.448 C0.44,21.48 1.232,23.64 4.688,26.016 L4.688,26.016 Z M54.152,51 L54.152,0.6 L38.456,0.6 L38.456,51 L54.152,51 Z M67.184,13.272 L67.184,51 L82.952,51 L82.952,13.272 L90.512,13.272 L93.032,6.864 L93.032,0.6 L57.752,0.6 L57.752,13.272 L67.184,13.272 Z M130.328,51 L130.328,38.4 L112.328,38.4 L112.328,31.488 L127.808,31.488 L127.808,18.888 L112.328,18.888 L112.328,13.272 L127.808,13.272 L130.328,6.864 L130.328,0.6 L96.632,0.6 L96.632,51 L130.328,51 Z M150.416,31.488 L156.68,31.488 L156.68,38.4 L150.416,38.4 L150.416,31.488 Z M156.68,18.888 L150.416,18.888 L150.416,13.272 L156.68,13.272 L156.68,18.888 Z M166.112,51 C169.856,51 172.448,48.408 172.448,44.736 L172.448,31.992 C172.448,28.248 169.424,25.872 165.968,25.872 L165.968,24.504 C169.424,24.504 172.448,22.128 172.448,18.456 L172.448,6.864 C172.448,3.192 169.856,0.6 166.112,0.6 L134.648,0.6 L134.648,51 L166.112,51 Z M199.52,13.272 L199.52,22.704 L193.256,22.704 L193.256,13.272 L199.52,13.272 Z M177.488,0.6 L177.488,51 L193.256,51 L193.256,35.304 L196.424,35.304 L200.672,51 L216.08,51 L216.08,44.736 L211.112,32.352 C213.488,31.704 215.288,29.04 215.288,26.664 L215.288,6.864 C215.288,3.192 212.696,0.6 209.024,0.6 L177.488,0.6 Z M254.096,51 L254.096,38.4 L236.096,38.4 L236.096,31.488 L251.576,31.488 L251.576,18.888 L236.096,18.888 L236.096,13.272 L251.576,13.272 L254.096,6.864 L254.096,0.6 L220.4,0.6 L220.4,51 L254.096,51 Z M274.832,28.248 L276.272,13.272 L278,13.272 L279.44,28.248 L274.832,28.248 Z M264.032,0.6 L256.976,44.736 L256.976,51 L272.672,51 L273.68,40.848 L280.592,40.848 L281.528,51 L297.296,51 L297.296,44.736 L290.24,0.6 L264.032,0.6 Z M320.192,18.888 L317.312,18.888 L317.312,0.6 L301.616,0.6 L301.616,51 L317.312,51 L317.312,31.488 L320.192,31.488 L324.44,51 L340.136,51 L340.136,44.736 L333.08,24.36 L338.912,6.864 L338.912,0.6 L323.936,0.6 L320.192,18.888 Z M378.152,51 L378.152,38.4 L360.152,38.4 L360.152,31.488 L375.632,31.488 L375.632,18.888 L360.152,18.888 L360.152,13.272 L375.632,13.272 L378.152,6.864 L378.152,0.6 L344.456,0.6 L344.456,51 L378.152,51 Z M404.504,13.272 L404.504,22.704 L398.24,22.704 L398.24,13.272 L404.504,13.272 Z M382.472,0.6 L382.472,51 L398.24,51 L398.24,35.304 L401.408,35.304 L405.656,51 L421.064,51 L421.064,44.736 L416.096,32.352 C418.472,31.704 420.272,29.04 420.272,26.664 L420.272,6.864 C420.272,3.192 417.68,0.6 414.008,0.6 L382.472,0.6 Z" id="SITEBREAKER" fill="#EC802F" filter="url(#filter-1)" sketch:type="MSShapeGroup"></path>
    </g>
</svg>
